src/assets/icons/filters/categories/phone_selected.svg

<svg width="35" height="48" viewBox="0 0 35 48" fill="none" xmlns="http://www.w3.org/2000/svg">
<path fill-rule="evenodd" clip-rule="evenodd" d="M32.9607 6.05107C32.959 4.46224 32.327 2.93898 31.2034 1.81565C30.0798 0.692327 28.5563 0.0607221 26.9675 0.0594788H5.99305C4.40449 0.0611365 2.88147 0.692924 1.75819 1.81621C0.63491 2.93949 0.00312262 4.46251 0.00146484 6.05107V42.0068C0.00270817 43.5957 0.634313 45.1191 1.75764 46.2427C2.88096 47.3663 4.40422 47.9983 5.99305 48H26.9675C28.5566 47.9987 30.0803 47.3669 31.2039 46.2433C32.3276 45.1196 32.9594 43.5959 32.9607 42.0068V21.0324C33.358 21.0324 33.7391 20.8745 34.0201 20.5935C34.3011 20.3126 34.459 19.9315 34.459 19.5341V18.0374C34.459 17.64 34.3011 17.2589 34.0201 16.9779C33.7391 16.6969 33.358 16.5391 32.9607 16.5391V13.5425C33.358 13.5425 33.7391 13.3847 34.0201 13.1037C34.3011 12.8227 34.459 12.4416 34.459 12.0442V10.5459C34.459 10.3492 34.4202 10.1543 34.3449 9.97256C34.2696 9.79078 34.1592 9.62561 34.0201 9.48648C33.881 9.34735 33.7158 9.23699 33.534 9.16169C33.3523 9.08639 33.1574 9.04764 32.9607 9.04764V6.05107V6.05107Z" fill="#13C1AC" fill-opacity="0.7"/>
<path fill-rule="evenodd" clip-rule="evenodd" d="M29.9767 41.9661C29.9755 42.7608 29.6591 43.5225 29.0971 44.0842C28.5351 44.646 27.7732 44.9619 26.9786 44.9627H5.99628C5.20165 44.9619 4.43978 44.646 3.87774 44.0842C3.31571 43.5225 2.99938 42.7608 2.99814 41.9661V5.99628C2.99814 4.343 4.34456 2.99814 5.99628 2.99814H26.9786C28.6319 2.99814 29.9767 4.343 29.9767 5.99628V41.9661V41.9661ZM34.4731 11.991C34.4731 12.8208 33.8031 13.4893 32.9733 13.4893V16.4874C33.8031 16.4874 34.4731 17.1575 34.4731 17.9857V19.484C34.4731 20.3138 33.8031 20.9839 32.9733 20.9839V41.9661C32.9716 43.5555 32.3395 45.0794 31.2156 46.2032C30.0918 47.3271 28.568 47.9592 26.9786 47.9609H5.99628C4.40635 47.9596 2.88189 47.3275 1.75764 46.2032C0.633392 45.079 0.00124392 43.5545 0 41.9646V5.99628C0.00124392 4.40635 0.633392 2.88189 1.75764 1.75764C2.88189 0.633392 4.40635 0.00124392 5.99628 0H26.9786C28.5685 0.00124392 30.093 0.633392 31.2172 1.75764C32.3415 2.88189 32.9736 4.40635 32.9749 5.99628V8.99286C33.8031 8.99286 34.4731 9.66294 34.4731 10.4927V11.991ZM16.4874 34.4731C15.6928 34.474 14.9309 34.7899 14.3689 35.3516C13.8069 35.9134 13.4905 36.6751 13.4893 37.4697C13.4893 39.123 14.8357 40.4663 16.4874 40.4663C17.2821 40.4655 18.0439 40.1495 18.606 39.5878C19.168 39.0261 19.4843 38.2644 19.4856 37.4697C19.4847 36.6748 19.1686 35.9127 18.6065 35.3506C18.0444 34.7885 17.2823 34.4724 16.4874 34.4716V34.4731ZM19.4856 5.99472H13.4893C13.0917 5.99472 12.7104 6.15265 12.4293 6.43378C12.1482 6.71491 11.9902 7.09621 11.9902 7.49379C11.9902 7.89137 12.1482 8.27266 12.4293 8.55379C12.7104 8.83492 13.0917 8.99286 13.4893 8.99286H19.4856C19.8829 8.99286 20.264 8.835 20.545 8.55402C20.826 8.27304 20.9839 7.89194 20.9839 7.49457C20.9839 7.0972 20.826 6.7161 20.545 6.43512C20.264 6.15414 19.8829 5.99628 19.4856 5.99628V5.99472Z" fill="#0F9989"/>
</svg>

<svg width="35" height="48" viewBox="0 0 35 48" fill="none" xmlns="http://www.w3.org/2000/svg"><path fill-rule="evenodd" clip-rule="evenodd" d="M32.96 6.051A5.998 5.998 0 0026.969.06H5.992A5.998 5.998 0 00.001 6.051v35.956A5.998 5.998 0 005.993 48h20.974a5.998 5.998 0 005.994-5.993V21.032a1.498 1.498 0 001.498-1.498v-1.497a1.498 1.498 0 00-1.498-1.498v-2.997a1.498 1.498 0 001.498-1.498v-1.498a1.498 1.498 0 00-1.498-1.498V6.05z" fill="#13C1AC" fill-opacity=".7"/><path fill-rule="evenodd" clip-rule="evenodd" d="M29.977 41.966a3.001 3.001 0 01-2.998 2.997H5.996a3 3 0 01-2.998-2.997V5.996a3.002 3.002 0 012.998-2.998H26.98a3.001 3.001 0 012.998 2.998v35.97zm4.496-29.975c0 .83-.67 1.498-1.5 1.498v2.998c.83 0 1.5.67 1.5 1.499v1.498c0 .83-.67 1.5-1.5 1.5v20.982a6.001 6.001 0 01-5.994 5.995H5.996A6.001 6.001 0 010 41.965V5.996A6.001 6.001 0 015.996 0H26.98a6 6 0 015.996 5.996v2.997c.828 0 1.498.67 1.498 1.5v1.498zM16.487 34.473a3.002 3.002 0 00-2.998 2.997 3.001 3.001 0 002.998 2.996 3.001 3.001 0 002.999-2.996 3.002 3.002 0 00-2.999-2.998v.001zm2.999-28.478h-5.997a1.499 1.499 0 100 2.998h5.997a1.498 1.498 0 000-2.997v-.001z" fill="#0F9989"/></svg>
